!!!COM:	Josquin des Prez
!!!CDT:	~1450-1521/08/27
!!!OPR:	Missa La sol fa re mi
!!!ONM:	1
!!!OTL:	Kyrie
!!!AGN:	Mass; Kyrie
!!!SCT:	NJE 11.2
!!!SCA:	New Josquin Edition 11.2
!!!voices: 4
!!!voices-OPR:	4
**kern	**kern	**kern	**kern
*staff4	*staff3	*staff2	*staff1
*Ivox	*Ivox	*Ivox	*Ivox
*I"Bassus	*I"Tenor	*I"Altus	*I"Superius
*I'B	*I'T	*I'A	*I'S
*>[A,B,C]	*>[A,B,C]	*>[A,B,C]	*>[A,B,C]
*>Kyrie1[A]	*>Kyrie1[A]	*>Kyrie1[A]	*>Kyrie1[A]
*>Christe[B]	*>Christe[B]	*>Christe[B]	*>Christe[B]
*>Kyrie2[C]	*>Kyrie2[C]	*>Kyrie2[C]	*>Kyrie2[C]
*clefF4	*clefGv2	*clefGv2	*clefG2
*k[]	*k[]	*k[]	*k[]
*>A	*>A	*>A	*>A
*M3/1	*M3/1	*M3/1	*M3/1
*met(O)	*met(O)	*met(O)	*met(O)
=1-	=1-	=1-	=1-
!!section: Kyrie I
!!!OMD: Kyrie I
0.r	0.r	0A	0a
.	.	2B\	1g
.	.	2c\	.
=2	=2	=2	=2
0.r	0.r	1d	0f
.	.	2r	.
.	.	2A/	.
.	.	2B\	1d
.	.	2d\	.
=3	=3	=3	=3
0.r	0.r	2c\	1e
.	.	1A	.
.	.	.	1a
.	.	4G/	.
.	.	4F/	.
.	.	1E	1g
=4	=4	=4	=4
0.r	0.r	2D/	0f
.	.	2.d\	.
.	.	4e\	.
.	.	1f	.
.	.	.	1d
.	.	4e\	.
.	.	4d\	.
=5	=5	=5	=5
0.r	0e	1c	2e/
.	.	.	2.g/
.	.	2r	.
.	.	.	4f/
.	.	2C/	2g/
.	1d	2F/	2a/
.	.	2G/	2b\
=6	=6	=6	=6
0.r	0c	2.A/	2.cc\
.	.	4G/	4b\
.	.	2E/	2g/
.	.	1F	2.a/
.	1A	.	.
.	.	.	4g/
.	.	2D/	4f/
.	.	.	4e/
=7	=7	=7	=7
0.r	1B	2.G/	2d/
.	.	.	2.g/
.	.	4E/	.
.	1e	2E/	.
.	.	.	4c/
.	.	2A/	2c/
.	1d	2r	2d/
.	.	2D/	2f/
=8	=8	=8	=8
0.r	1.c	1.A	2.e/
.	.	.	4A/
.	.	.	2A/
.	2A/	2F/	1a
.	1B	1E	.
.	.	.	2g#i/
=9	=9	=9	=9
0A	2r	2.e\	0a
.	1A	.	.
.	.	4d\	.
.	.	2c\	.
.	2c\	2A/	.
1G	2d\	1B	1r
.	2e\	.	.
=10	=10	=10	=10
0F	2f\	2r	0a
.	2c\	1.A	.
.	2d\	.	.
.	2c\	.	.
1D	1f	1d	1a
=11	=11	=11	=11
1E	2.e\	2B\	1g
.	.	1e	.
.	4d\	.	.
1A	2c\	.	1cc
.	2A/	2c\	.
1G	2B\	2d\	1b
.	2E/	2e\	.
=12	=12	=12	=12
0F	2r	2f\	0.a
.	2A/	2c\	.
.	2D/	2d\	.
.	2.A/	2c\	.
1D	.	1f	.
.	2.d\	.	.
=13	=13	=13	=13
0.El	0.Bl	0.el	0.gl
!!LO:LB:i:g=z
=14||	=14||	=14||	=14||
*>B	*>B	*>B	*>B
!!section: Christe
!!!OMD: Christe
*M2/1	*M2/1	*M2/1	*M2/1
*met(C|)	*met(C|)	*met(C|)	*met(C|)
0r	0r	0r	0a
=15	=15	=15	=15
0r	0r	0e	1g
.	.	.	1g
=16	=16	=16	=16
0r	0r	0d	1f
.	.	.	1d
=17	=17	=17	=17
0r	0r	1c	1e
.	.	1A	[1a
=18	=18	=18	=18
0r	0r	1B	2a/]
.	.	.	2g/
.	.	[1e	1g
=19	=19	=19	=19
0r	0r	2e\]	1f
.	.	2d\	.
.	.	1d	1d
=20	=20	=20	=20
0r	0A	1c	[0e
.	.	1A	.
=21	=21	=21	=21
0E	0G	0B	0e]
=22	=22	=22	=22
0D	1F	0r	0r
.	1D	.	.
=23	=23	=23	=23
1C	1E	0r	0r
1AA	[1A	.	.
=24	=24	=24	=24
1BB	2A/]	0r	0r
.	2G/	.	.
[1E	1G	.	.
=25	=25	=25	=25
1E]	1.F	0r	0r
1D	.	.	.
.	2D/	.	.
=26	=26	=26	=26
1C	2E/	0e	0r
.	4F/	.	.
.	4G/	.	.
1AA	2A/	.	.
.	2c\	.	.
=27	=27	=27	=27
0BB	2B\	0d	1r
.	1A	.	.
.	.	.	1b
.	2G#i/	.	.
=28	=28	=28	=28
1r	0A	0c	1.cc
[1A	.	.	.
.	.	.	4b\
.	.	.	4a/
=29	=29	=29	=29
1A]	0e	1A	1cc
1G	.	1B	1b
=30	=30	=30	=30
1F	0f	1c	0a
1D	.	1d	.
=31	=31	=31	=31
1E	0e	1B	1g
[1A	.	1A	[1cc
=32	=32	=32	=32
1A]	1A	0e	1cc]
1G	1B	.	1b
=33	=33	=33	=33
1F	1c	0f	2a/
.	.	.	2cc\
1D	1d	.	2b\
.	.	.	[2a/
=34	=34	=34	=34
0E	1B	0e	2a/]
.	.	.	4g#i/
.	.	.	4f#i/
.	1E	.	1g#i
=35	=35	=35	=35
1r	1.F	1c	[0a
[1D	.	1d	.
.	4E/	.	.
.	4D/	.	.
=36	=36	=36	=36
1D]	1F	0A	0a]
1C	1E	.	.
=37	=37	=37	=37
1BB-	1F	0B-i	1d
1GG	1G	.	1dd
=38	=38	=38	=38
1AA	1E	1.A	1cc
[1D	1D	.	[1a
.	.	2G/	.
=39	=39	=39	=39
1D]	0A	1F	2a/]
.	.	.	2b\
1C	.	1E	1cc
=40	=40	=40	=40
1BB-i	0B-i	1F	0dd
1GG	.	1G	.
=41	=41	=41	=41
0AAl	0Al	0El	0ccl
!!LO:LB:i:g=z
=42||	=42||	=42||	=42||
*>C	*>C	*>C	*>C
*M3/1	*M3/1	*M3/1	*M3/1
*met(O)	*met(O)	*met(O)	*met(O)
!!section: Kyrie II
!!!OMD: Kyrie II
0.r	0.r	1A	1a
.	.	2B\	2g/
.	.	2A/	1f
.	.	1d	.
.	.	.	2d/
=43	=43	=43	=43
0.r	0.r	2c\	2e/
.	.	2F/	2a/
.	.	2E/	2g/
.	.	2D/	1f
.	.	1d	.
.	.	.	2d/
=44	=44	=44	=44
0.r	0.r	2c\	2e/
.	.	2A/	2a/
.	.	2B\	2g/
.	.	2A/	2f/
.	.	2B\	1d
.	.	2d\	.
=45	=45	=45	=45
1A	0.r	1c	1e
2G\	.	2B\	1r
1F	.	2A/	.
.	.	2c\	1a
2D\	.	2d\	.
=46	=46	=46	=46
2E\	0.r	2B\	2g/
2A\	.	2A/	2cc\
2G\	.	2r	2b\
1F	.	2A/	1a
.	.	2c\	.
2D\	.	2d\	4g/
.	.	.	4f/
=47	=47	=47	=47
2E\	0.r	2B\	2g/
2A\	.	2c\	2e/
2G\	.	2B\	2g/
2F\	.	2c\	2a/
1D	.	4d\	1f
.	.	4c\	.
.	.	4B\	.
.	.	4A/	.
=48	=48	=48	=48
1E	1e	2.G/	4e/
.	.	.	4f/
.	.	.	4g/
.	.	4F/	4a/
1r	2d\	2G/	2b\
.	1c	2A/	2cc\
1A	.	2.c\	2a/
.	2A/	.	2cc\
.	.	4d\	.
=49	=49	=49	=49
2G\	2B\	4e\	1b
.	.	4f\	.
2E\	2e\	1g	.
2G\	2d\	.	1r
2A\	1c	2e\	.
2F\	.	2f\	1cc
2A\	2A/	[2e\	.
=50	=50	=50	=50
2G\	2B\	4e\]	2.b\
.	.	4d\	.
2E\	2e\	2.g\	.
.	.	.	4a/
2G\	2d\	.	2b\
.	.	4f\	.
2A\	2c\	1e	1cc
1F	1A	.	.
.	.	2d\	4b\
.	.	.	4a/
=51	=51	=51	=51
2E\	2B\	1e	2g/
2C/	2.e\	.	2cc\
2D\	.	1r	2b\
.	4d\	.	.
2F\	4c\	.	1a
.	4A/	.	.
1E	1B	1e	.
.	.	.	2g#i/
=52	=52	=52	=52
1AA	2r	1c	2a/
.	2A/	.	2cc\
1r	2G/	0d	2b\
.	1F	.	2.a/
1D	.	.	.
.	.	.	4g/
.	2D/	.	2f/
=53	=53	=53	=53
2C/	2E/	2G/	1e
2AA/	2A/	1c	.
2C/	2G/	.	1r
2D\	1F	2A/	.
2BB-/	.	2B-\	1f
2D\	2D/	[2A/	.
=54	=54	=54	=54
2C/	2E/	4A/]	2.e/
.	.	4G/	.
2AA/	2A/	2.c\	.
.	.	.	4d/
2C/	2G/	.	2e/
.	.	4B-i\	.
2D\	2F/	1A	1f
1BB-i	1D	.	.
.	.	2G/	4e/
.	.	.	4d/
=55	=55	=55	=55
1AA	2E/	2A/	1c
.	2e\	2E/	.
1r	2d\	2G/	2B/
.	1c	2A/	2A/
1A	.	1F	2.c/
.	2A/	.	.
.	.	.	4d/
=56	=56	=56	=56
2G\	2B\	1E	4e/
.	.	.	4f/
2E\	2e\	.	1g
2G\	2d\	1r	.
2A\	2c\	.	2e/
2F\	1A	1r	2f/
2A\	.	.	[2e/
=57	=57	=57	=57
2G\	2B\	1r	4e/]
.	.	.	4d/
2E\	2e\	.	2.g/
2G\	2d\	1r	.
.	.	.	4f/
2A\	2c\	.	1e
1F	1A	1D	.
.	.	.	2d/
=58	=58	=58	=58
0.El	0.Bl	0.Gl	0.el
==	==	==	==
*-	*-	*-	*-
!!!RDF**kern: l=long note in original notation
!!!RDF**kern: i=editorial accidental
!!!ENC: Jesse Rodin 2002/10/19; Victoria Chang 2011/05/04
!!!END: 2011/05/04/
!!!EED:	Jesse Rodin
!!!EEV:	2011/09/19/
!!attribution-level@Jos: 1 (secure)
!!!ONB:	Translated from MusicXML and edited on 2011/09/19/ by Craig Sapp
!!muse2ps: T^@{OPR}^u^@{ONM}{. }@{OTL}^C^@{COM}\n@{SCT}^i2I100v85,90,85,150Q16
